X:360
T:Toss the Feathers
Z: id:dc-reel-336
M:C
L:1/8
K:D Mixolydian
D2FD ADFD|ABcA GEE2|D2FD ADFD|d2ed cAGE|!
D2FD ADFD|ABcA GEE2|cABG A3c|d2ed cAGE:|!
Add2 Add2|Add2 ed^cd|eaa^g a3=g|eaag egdg|!
efge afge|dfed cAAB|cABG A3^c|d2ed cAGE:|!

